frontend/public/Logos/aws-dark.svg

<svg width="24" height="16" viewBox="0 0 24 16" fill="none" xmlns="http://www.w3.org/2000/svg">
<g id="amazon_web_services_logo.svg" clip-path="url(#clip0_2552_26387)">
<g id="Group">
<path id="Vector" d="M6.82058 6.05151C6.82058 6.34672 6.85997 6.58289 6.89935 6.76001C6.95843 6.93714 7.03721 7.11426 7.15537 7.33075C7.19476 7.38979 7.21445 7.44883 7.21445 7.50788C7.21445 7.5866 7.17506 7.66532 7.0569 7.74404L6.56456 8.07861C6.48579 8.11797 6.42671 8.15733 6.36762 8.15733C6.28885 8.15733 6.21008 8.11797 6.1313 8.03925C6.01314 7.92117 5.93437 7.80308 5.85559 7.66532C5.77682 7.52756 5.69804 7.38979 5.61927 7.19299C5.00876 7.92117 4.24071 8.27542 3.29542 8.27542C2.62584 8.27542 2.1138 8.07861 1.71993 7.70468C1.32606 7.33075 1.12912 6.81906 1.12912 6.18928C1.12912 5.52014 1.36544 4.96908 1.83809 4.57547C2.31074 4.18186 2.96063 3.96538 3.76807 3.96538C4.04378 3.96538 4.31949 3.98506 4.5952 4.02442C4.8906 4.06378 5.18601 4.12282 5.50111 4.20154V3.63081C5.50111 3.04039 5.38294 2.60742 5.12693 2.37125C4.87091 2.13508 4.45734 2.017 3.84684 2.017C3.57113 2.017 3.29542 2.05636 3.00001 2.1154C2.70461 2.19413 2.4289 2.27285 2.15319 2.39093C2.03503 2.43029 1.93656 2.46965 1.87748 2.48933C1.8184 2.48933 1.77901 2.50901 1.75932 2.50901C1.64115 2.50901 1.60177 2.43029 1.60177 2.27285V1.87924C1.60177 1.76115 1.62146 1.66275 1.66085 1.60371C1.70024 1.54467 1.77901 1.48563 1.87748 1.44626C2.15319 1.3085 2.48798 1.19042 2.86216 1.09201C3.25603 0.993612 3.6499 0.93457 4.08316 0.93457C5.02846 0.93457 5.69804 1.15106 6.15099 1.56435C6.58425 1.99732 6.80088 2.6271 6.80088 3.51272L6.82058 6.05151ZM3.63021 7.25203C3.88623 7.25203 4.16194 7.21267 4.43765 7.11426C4.71336 7.01586 4.96938 6.83874 5.18601 6.60257C5.30417 6.44513 5.40264 6.28768 5.46172 6.09088C5.50111 5.89407 5.54049 5.67758 5.54049 5.40206V5.06749C5.30417 5.00845 5.06785 4.96908 4.81183 4.92972C4.55581 4.89036 4.31949 4.89036 4.06347 4.89036C3.53174 4.89036 3.15756 4.98876 2.88185 5.20525C2.62584 5.42174 2.48798 5.71695 2.48798 6.11056C2.48798 6.48449 2.58645 6.76001 2.78338 6.93714C2.98032 7.17331 3.25603 7.25203 3.63021 7.25203ZM9.95187 8.11797C9.81401 8.11797 9.71554 8.09829 9.65646 8.03925C9.59738 7.99989 9.5383 7.88181 9.49891 7.72436L7.64771 1.62339C7.60832 1.46595 7.56894 1.36754 7.56894 1.3085C7.56894 1.19042 7.62802 1.1117 7.76587 1.1117H8.53392C8.69147 1.1117 8.78994 1.13138 8.84902 1.19042C8.9081 1.22978 8.96718 1.34786 9.00657 1.50531L10.326 6.72065L11.547 1.50531C11.5864 1.34786 11.6258 1.24946 11.7046 1.19042C11.7637 1.15106 11.8818 1.1117 12.0197 1.1117H12.6499C12.8074 1.1117 12.9059 1.13138 12.965 1.19042C13.0241 1.22978 13.0832 1.34786 13.1225 1.50531L14.3632 6.7797L15.7221 1.50531C15.7615 1.34786 15.8206 1.24946 15.8796 1.19042C15.9387 1.15106 16.0372 1.1117 16.1947 1.1117H16.9234C17.0416 1.1117 17.1203 1.17074 17.1203 1.3085C17.1203 1.34786 17.1203 1.38722 17.1007 1.42658C17.1007 1.46595 17.081 1.54467 17.0416 1.62339L15.1313 7.72436C15.0919 7.88181 15.0328 7.98021 14.9737 8.03925C14.9147 8.07861 14.8162 8.11797 14.6783 8.11797H14.0088C13.8512 8.11797 13.7527 8.09829 13.6937 8.03925C13.6346 7.98021 13.5755 7.88181 13.5361 7.72436L12.3151 2.64678L11.0941 7.72436C11.0547 7.88181 11.0153 7.98021 10.9365 8.03925C10.8775 8.09829 10.7593 8.11797 10.6214 8.11797H9.95187ZM20.0941 8.31478C19.6805 8.31478 19.267 8.27542 18.8731 8.17702C18.4792 8.07861 18.1641 7.98021 17.9672 7.86213C17.849 7.7834 17.7505 7.70468 17.7308 7.64564C17.7112 7.5866 17.6718 7.4882 17.6718 7.42915V7.03554C17.6718 6.8781 17.7308 6.79938 17.849 6.79938C17.8884 6.79938 17.9475 6.79938 17.9869 6.81906C18.0263 6.83874 18.105 6.85842 18.1838 6.89778C18.4595 7.01586 18.7352 7.11426 19.0503 7.17331C19.3654 7.23235 19.6805 7.27171 19.9956 7.27171C20.488 7.27171 20.8818 7.19299 21.1378 7.01586C21.4136 6.83874 21.5514 6.58289 21.5514 6.268C21.5514 6.05151 21.4726 5.87439 21.3348 5.71695C21.1969 5.5595 20.9212 5.44142 20.547 5.30365L19.4048 4.9494C18.8337 4.77228 18.4004 4.49675 18.1444 4.1425C17.8884 3.78825 17.7505 3.41432 17.7505 3.00103C17.7505 2.66646 17.8293 2.37125 17.9672 2.13508C18.105 1.89892 18.302 1.66275 18.5383 1.48563C18.7746 1.3085 19.0503 1.17074 19.3654 1.07233C19.6805 0.973931 20.0153 0.93457 20.3501 0.93457C20.5273 0.93457 20.7046 0.93457 20.8818 0.973931C21.0591 0.993612 21.2363 1.03297 21.3939 1.05265C21.5514 1.09201 21.709 1.13138 21.8468 1.17074C21.9847 1.2101 22.1028 1.26914 22.1816 1.3085C22.2998 1.36754 22.3785 1.42658 22.4179 1.50531C22.4573 1.56435 22.4967 1.66275 22.4967 1.76115V2.13508C22.4967 2.29253 22.4376 2.39093 22.3195 2.39093C22.2604 2.39093 22.1619 2.35157 22.0241 2.29253C21.5711 2.09572 21.0788 1.97764 20.5077 1.97764C20.0547 1.97764 19.7002 2.05636 19.4639 2.19413C19.2276 2.33189 19.0897 2.56806 19.0897 2.90263C19.0897 3.11911 19.1685 3.31592 19.326 3.45368C19.4836 3.61113 19.779 3.74889 20.1926 3.88665L21.3151 4.2409C21.8862 4.41803 22.2998 4.67388 22.5361 4.98876C22.7724 5.30365 22.8906 5.67758 22.8906 6.09088C22.8906 6.42545 22.8118 6.74033 22.6936 6.99618C22.5558 7.27171 22.3589 7.50788 22.1225 7.685C21.8862 7.88181 21.5908 8.01957 21.256 8.11797C20.8621 8.27542 20.488 8.31478 20.0941 8.31478Z" fill="white"/>
<g id="Group_2">
<path id="Vector_2" fill-rule="evenodd" clip-rule="evenodd" d="M21.5908 12.1525C18.9912 14.0615 15.2101 15.0849 11.9803 15.0849C7.43108 15.0849 3.33481 13.4121 0.242906 10.6174C0.00658259 10.4009 0.223213 10.1057 0.518617 10.2632C3.86653 12.2115 7.9825 13.3727 12.256 13.3727C15.1313 13.3727 18.302 12.7823 21.2166 11.5424C21.6302 11.3653 22.0044 11.8376 21.5908 12.1525Z" fill="#FF9900"/>
<path id="Vector_3" fill-rule="evenodd" clip-rule="evenodd" d="M22.6543 10.9324C22.3195 10.4994 20.4683 10.7356 19.6214 10.834C19.3654 10.8734 19.326 10.6372 19.5624 10.4798C21.0394 9.43669 23.4814 9.7319 23.7571 10.0861C24.0328 10.4404 23.6783 12.8808 22.2998 14.0419C22.0831 14.2191 21.8862 14.1207 21.9847 13.8845C22.2998 13.0973 22.989 11.3457 22.6543 10.9324Z" fill="#FF9900"/>
</g>
</g>
<g id="Group_3">
<path id="Vector_4" d="M6.82058 6.05151C6.82058 6.34672 6.85997 6.58289 6.89935 6.76001C6.95843 6.93714 7.03721 7.11426 7.15537 7.33075C7.19476 7.38979 7.21445 7.44883 7.21445 7.50788C7.21445 7.5866 7.17506 7.66532 7.0569 7.74404L6.56456 8.07861C6.48579 8.11797 6.42671 8.15733 6.36762 8.15733C6.28885 8.15733 6.21008 8.11797 6.1313 8.03925C6.01314 7.92117 5.93437 7.80308 5.85559 7.66532C5.77682 7.52756 5.69804 7.38979 5.61927 7.19299C5.00876 7.92117 4.24071 8.27542 3.29542 8.27542C2.62584 8.27542 2.1138 8.07861 1.71993 7.70468C1.32606 7.33075 1.12912 6.81906 1.12912 6.18928C1.12912 5.52014 1.36544 4.96908 1.83809 4.57547C2.31074 4.18186 2.96063 3.96538 3.76807 3.96538C4.04378 3.96538 4.31949 3.98506 4.5952 4.02442C4.8906 4.06378 5.18601 4.12282 5.50111 4.20154V3.63081C5.50111 3.04039 5.38294 2.60742 5.12693 2.37125C4.87091 2.13508 4.45734 2.017 3.84684 2.017C3.57113 2.017 3.29542 2.05636 3.00001 2.1154C2.70461 2.19413 2.4289 2.27285 2.15319 2.39093C2.03503 2.43029 1.93656 2.46965 1.87748 2.48933C1.8184 2.48933 1.77901 2.50901 1.75932 2.50901C1.64115 2.50901 1.60177 2.43029 1.60177 2.27285V1.87924C1.60177 1.76115 1.62146 1.66275 1.66085 1.60371C1.70024 1.54467 1.77901 1.48563 1.87748 1.44626C2.15319 1.3085 2.48798 1.19042 2.86216 1.09201C3.25603 0.993612 3.6499 0.93457 4.08316 0.93457C5.02846 0.93457 5.69804 1.15106 6.15099 1.56435C6.58425 1.99732 6.80088 2.6271 6.80088 3.51272L6.82058 6.05151ZM3.63021 7.25203C3.88623 7.25203 4.16194 7.21267 4.43765 7.11426C4.71336 7.01586 4.96938 6.83874 5.18601 6.60257C5.30417 6.44513 5.40264 6.28768 5.46172 6.09088C5.50111 5.89407 5.54049 5.67758 5.54049 5.40206V5.06749C5.30417 5.00845 5.06785 4.96908 4.81183 4.92972C4.55581 4.89036 4.31949 4.89036 4.06347 4.89036C3.53174 4.89036 3.15756 4.98876 2.88185 5.20525C2.62584 5.42174 2.48798 5.71695 2.48798 6.11056C2.48798 6.48449 2.58645 6.76001 2.78338 6.93714C2.98032 7.17331 3.25603 7.25203 3.63021 7.25203ZM9.95187 8.11797C9.81401 8.11797 9.71554 8.09829 9.65646 8.03925C9.59738 7.99989 9.5383 7.88181 9.49891 7.72436L7.64771 1.62339C7.60832 1.46595 7.56894 1.36754 7.56894 1.3085C7.56894 1.19042 7.62802 1.1117 7.76587 1.1117H8.53392C8.69147 1.1117 8.78994 1.13138 8.84902 1.19042C8.9081 1.22978 8.96718 1.34786 9.00657 1.50531L10.326 6.72065L11.547 1.50531C11.5864 1.34786 11.6258 1.24946 11.7046 1.19042C11.7637 1.15106 11.8818 1.1117 12.0197 1.1117H12.6499C12.8074 1.1117 12.9059 1.13138 12.965 1.19042C13.0241 1.22978 13.0832 1.34786 13.1225 1.50531L14.3632 6.7797L15.7221 1.50531C15.7615 1.34786 15.8206 1.24946 15.8796 1.19042C15.9387 1.15106 16.0372 1.1117 16.1947 1.1117H16.9234C17.0416 1.1117 17.1203 1.17074 17.1203 1.3085C17.1203 1.34786 17.1203 1.38722 17.1007 1.42658C17.1007 1.46595 17.081 1.54467 17.0416 1.62339L15.1313 7.72436C15.0919 7.88181 15.0328 7.98021 14.9737 8.03925C14.9147 8.07861 14.8162 8.11797 14.6783 8.11797H14.0088C13.8512 8.11797 13.7527 8.09829 13.6937 8.03925C13.6346 7.98021 13.5755 7.88181 13.5361 7.72436L12.3151 2.64678L11.0941 7.72436C11.0547 7.88181 11.0153 7.98021 10.9365 8.03925C10.8775 8.09829 10.7593 8.11797 10.6214 8.11797H9.95187ZM20.0941 8.31478C19.6805 8.31478 19.267 8.27542 18.8731 8.17702C18.4792 8.07861 18.1641 7.98021 17.9672 7.86213C17.849 7.7834 17.7505 7.70468 17.7308 7.64564C17.7112 7.5866 17.6718 7.4882 17.6718 7.42915V7.03554C17.6718 6.8781 17.7308 6.79938 17.849 6.79938C17.8884 6.79938 17.9475 6.79938 17.9869 6.81906C18.0263 6.83874 18.105 6.85842 18.1838 6.89778C18.4595 7.01586 18.7352 7.11426 19.0503 7.17331C19.3654 7.23235 19.6805 7.27171 19.9956 7.27171C20.488 7.27171 20.8818 7.19299 21.1378 7.01586C21.4136 6.83874 21.5514 6.58289 21.5514 6.268C21.5514 6.05151 21.4726 5.87439 21.3348 5.71695C21.1969 5.5595 20.9212 5.44142 20.547 5.30365L19.4048 4.9494C18.8337 4.77228 18.4004 4.49675 18.1444 4.1425C17.8884 3.78825 17.7505 3.41432 17.7505 3.00103C17.7505 2.66646 17.8293 2.37125 17.9672 2.13508C18.105 1.89892 18.302 1.66275 18.5383 1.48563C18.7746 1.3085 19.0503 1.17074 19.3654 1.07233C19.6805 0.973931 20.0153 0.93457 20.3501 0.93457C20.5273 0.93457 20.7046 0.93457 20.8818 0.973931C21.0591 0.993612 21.2363 1.03297 21.3939 1.05265C21.5514 1.09201 21.709 1.13138 21.8468 1.17074C21.9847 1.2101 22.1028 1.26914 22.1816 1.3085C22.2998 1.36754 22.3785 1.42658 22.4179 1.50531C22.4573 1.56435 22.4967 1.66275 22.4967 1.76115V2.13508C22.4967 2.29253 22.4376 2.39093 22.3195 2.39093C22.2604 2.39093 22.1619 2.35157 22.0241 2.29253C21.5711 2.09572 21.0788 1.97764 20.5077 1.97764C20.0547 1.97764 19.7002 2.05636 19.4639 2.19413C19.2276 2.33189 19.0897 2.56806 19.0897 2.90263C19.0897 3.11911 19.1685 3.31592 19.326 3.45368C19.4836 3.61113 19.779 3.74889 20.1926 3.88665L21.3151 4.2409C21.8862 4.41803 22.2998 4.67388 22.5361 4.98876C22.7724 5.30365 22.8906 5.67758 22.8906 6.09088C22.8906 6.42545 22.8118 6.74033 22.6936 6.99618C22.5558 7.27171 22.3589 7.50788 22.1225 7.685C21.8862 7.88181 21.5908 8.01957 21.256 8.11797C20.8621 8.27542 20.488 8.31478 20.0941 8.31478Z" fill="white"/>
<g id="Group_4">
<path id="Vector_5" fill-rule="evenodd" clip-rule="evenodd" d="M21.5908 12.1525C18.9912 14.0615 15.2101 15.0849 11.9803 15.0849C7.43108 15.0849 3.33481 13.4121 0.242906 10.6174C0.00658259 10.4009 0.223213 10.1057 0.518617 10.2632C3.86653 12.2115 7.9825 13.3727 12.256 13.3727C15.1313 13.3727 18.302 12.7823 21.2166 11.5424C21.6302 11.3653 22.0044 11.8376 21.5908 12.1525Z" fill="#FF9900"/>
<path id="Vector_6" fill-rule="evenodd" clip-rule="evenodd" d="M22.6543 10.9324C22.3195 10.4994 20.4683 10.7356 19.6214 10.834C19.3654 10.8734 19.326 10.6372 19.5624 10.4798C21.0394 9.43669 23.4814 9.7319 23.7571 10.0861C24.0328 10.4404 23.6783 12.8808 22.2998 14.0419C22.0831 14.2191 21.8862 14.1207 21.9847 13.8845C22.2998 13.0973 22.989 11.3457 22.6543 10.9324Z" fill="#FF9900"/>
</g>
</g>
</g>
<defs>
<clipPath id="clip0_2552_26387">
<rect width="23.7111" height="14.17" fill="white" transform="translate(0.14444 0.915039)"/>
</clipPath>
</defs>
</svg>

<svg xmlns="http://www.w3.org/2000/svg" width="24" height="16" fill="none"><g clip-path="url(#a)"><path fill="#fff" d="M6.82 6.052c0 .295.04.53.08.708.058.177.137.354.255.57q.06.09.06.178c0 .079-.04.157-.158.236l-.492.335c-.08.039-.138.078-.197.078q-.12 0-.237-.118a1.7 1.7 0 0 1-.275-.374c-.08-.137-.158-.275-.237-.472-.61.728-1.378 1.082-2.324 1.082-.67 0-1.181-.196-1.575-.57s-.59-.886-.59-1.516c0-.669.235-1.22.708-1.614.473-.393 1.123-.61 1.93-.61q.414 0 .827.06c.296.039.591.098.906.177V3.63c0-.59-.118-1.024-.374-1.26s-.67-.354-1.28-.354c-.276 0-.552.04-.847.098a6 6 0 0 0-.847.276c-.118.04-.216.079-.276.098-.059 0-.098.02-.118.02-.118 0-.157-.079-.157-.236v-.394a.5.5 0 0 1 .059-.275.5.5 0 0 1 .216-.158c.276-.137.611-.256.985-.354A5 5 0 0 1 4.083.935c.945 0 1.615.216 2.068.63.433.432.65 1.062.65 1.948zm-3.19 1.2c.256 0 .532-.04.808-.138a1.9 1.9 0 0 0 .748-.511c.118-.158.217-.315.276-.512a3.3 3.3 0 0 0 .078-.689v-.335a8 8 0 0 0-.728-.137c-.256-.04-.493-.04-.749-.04-.531 0-.905.099-1.181.315-.256.217-.394.512-.394.906q0 .56.295.826c.197.236.473.315.847.315m6.322.866c-.138 0-.236-.02-.296-.079-.059-.04-.118-.157-.157-.315l-1.851-6.1c-.04-.158-.08-.256-.08-.316 0-.118.06-.196.198-.196h.768c.157 0 .256.02.315.078.06.04.118.158.158.315l1.319 5.216 1.221-5.216c.04-.157.079-.256.158-.315a.6.6 0 0 1 .315-.078h.63c.157 0 .256.02.315.078.06.04.118.158.158.315l1.24 5.275 1.36-5.275a.66.66 0 0 1 .157-.315.56.56 0 0 1 .315-.078h.728c.119 0 .197.059.197.196 0 .04 0 .08-.02.119 0 .039-.019.118-.058.196l-1.91 6.101a.66.66 0 0 1-.158.315.53.53 0 0 1-.296.079h-.67c-.157 0-.255-.02-.314-.079a.66.66 0 0 1-.158-.315l-1.22-5.077-1.222 5.077c-.04.158-.079.256-.157.315-.06.06-.178.079-.316.079zm10.142.197c-.414 0-.827-.04-1.22-.138-.395-.098-.71-.197-.907-.315-.118-.079-.216-.157-.236-.216-.02-.06-.06-.158-.06-.217v-.393q0-.237.178-.237c.04 0 .099 0 .138.02s.118.04.197.079c.275.118.551.216.866.275s.63.099.946.099c.492 0 .886-.079 1.142-.256a.85.85 0 0 0 .413-.748.8.8 0 0 0-.216-.551c-.138-.157-.414-.276-.788-.413l-1.142-.355c-.571-.177-1.005-.452-1.26-.806-.257-.355-.395-.729-.395-1.142 0-.335.08-.63.217-.866.138-.236.335-.472.571-.65q.355-.265.827-.413c.316-.098.65-.137.985-.137.177 0 .355 0 .532.039.177.02.354.059.512.079.157.039.315.078.453.118s.256.098.335.137c.118.06.197.119.236.197.04.06.079.158.079.256v.374c0 .158-.06.256-.177.256-.06 0-.158-.04-.296-.098a3.7 3.7 0 0 0-1.516-.315c-.453 0-.808.078-1.044.216s-.374.374-.374.709c0 .216.079.413.236.55.158.158.453.296.867.434l1.122.354c.571.177.985.433 1.221.748s.355.689.355 1.102c0 .334-.08.65-.197.905a1.95 1.95 0 0 1-.572.689c-.236.197-.531.335-.866.433-.394.157-.768.197-1.162.197"/><g fill="#F90" fill-rule="evenodd" clip-rule="evenodd"><path d="M21.59 12.153c-2.599 1.909-6.38 2.932-9.61 2.932-4.549 0-8.645-1.673-11.737-4.468-.236-.216-.02-.511.276-.354 3.348 1.948 7.464 3.11 11.737 3.11 2.875 0 6.046-.59 8.96-1.83.414-.178.788.295.375.61"/><path d="M22.654 10.932c-.334-.433-2.186-.196-3.033-.098-.256.04-.295-.197-.059-.354 1.477-1.043 3.92-.748 4.195-.394s-.079 2.795-1.457 3.956c-.217.177-.414.079-.315-.158.315-.787 1.004-2.538.67-2.952"/></g><path fill="#fff" d="M6.82 6.052c0 .295.04.53.08.708.058.177.137.354.255.57q.06.09.06.178c0 .079-.04.157-.158.236l-.492.335c-.08.039-.138.078-.197.078q-.12 0-.237-.118a1.7 1.7 0 0 1-.275-.374c-.08-.137-.158-.275-.237-.472-.61.728-1.378 1.082-2.324 1.082-.67 0-1.181-.196-1.575-.57s-.59-.886-.59-1.516c0-.669.235-1.22.708-1.614.473-.393 1.123-.61 1.93-.61q.414 0 .827.06c.296.039.591.098.906.177V3.63c0-.59-.118-1.024-.374-1.26s-.67-.354-1.28-.354c-.276 0-.552.04-.847.098a6 6 0 0 0-.847.276c-.118.04-.216.079-.276.098-.059 0-.098.02-.118.02-.118 0-.157-.079-.157-.236v-.394a.5.5 0 0 1 .059-.275.5.5 0 0 1 .216-.158c.276-.137.611-.256.985-.354A5 5 0 0 1 4.083.935c.945 0 1.615.216 2.068.63.433.432.65 1.062.65 1.948zm-3.19 1.2c.256 0 .532-.04.808-.138a1.9 1.9 0 0 0 .748-.511c.118-.158.217-.315.276-.512a3.3 3.3 0 0 0 .078-.689v-.335a8 8 0 0 0-.728-.137c-.256-.04-.493-.04-.749-.04-.531 0-.905.099-1.181.315-.256.217-.394.512-.394.906q0 .56.295.826c.197.236.473.315.847.315m6.322.866c-.138 0-.236-.02-.296-.079-.059-.04-.118-.157-.157-.315l-1.851-6.1c-.04-.158-.08-.256-.08-.316 0-.118.06-.196.198-.196h.768c.157 0 .256.02.315.078.06.04.118.158.158.315l1.319 5.216 1.221-5.216c.04-.157.079-.256.158-.315a.6.6 0 0 1 .315-.078h.63c.157 0 .256.02.315.078.06.04.118.158.158.315l1.24 5.275 1.36-5.275a.66.66 0 0 1 .157-.315.56.56 0 0 1 .315-.078h.728c.119 0 .197.059.197.196 0 .04 0 .08-.02.119 0 .039-.019.118-.058.196l-1.91 6.101a.66.66 0 0 1-.158.315.53.53 0 0 1-.296.079h-.67c-.157 0-.255-.02-.314-.079a.66.66 0 0 1-.158-.315l-1.22-5.077-1.222 5.077c-.04.158-.079.256-.157.315-.06.06-.178.079-.316.079zm10.142.197c-.414 0-.827-.04-1.22-.138-.395-.098-.71-.197-.907-.315-.118-.079-.216-.157-.236-.216-.02-.06-.06-.158-.06-.217v-.393q0-.237.178-.237c.04 0 .099 0 .138.02s.118.04.197.079c.275.118.551.216.866.275s.63.099.946.099c.492 0 .886-.079 1.142-.256a.85.85 0 0 0 .413-.748.8.8 0 0 0-.216-.551c-.138-.157-.414-.276-.788-.413l-1.142-.355c-.571-.177-1.005-.452-1.26-.806-.257-.355-.395-.729-.395-1.142 0-.335.08-.63.217-.866.138-.236.335-.472.571-.65q.355-.265.827-.413c.316-.098.65-.137.985-.137.177 0 .355 0 .532.039.177.02.354.059.512.079.157.039.315.078.453.118s.256.098.335.137c.118.06.197.119.236.197.04.06.079.158.079.256v.374c0 .158-.06.256-.177.256-.06 0-.158-.04-.296-.098a3.7 3.7 0 0 0-1.516-.315c-.453 0-.808.078-1.044.216s-.374.374-.374.709c0 .216.079.413.236.55.158.158.453.296.867.434l1.122.354c.571.177.985.433 1.221.748s.355.689.355 1.102c0 .334-.08.65-.197.905a1.95 1.95 0 0 1-.572.689c-.236.197-.531.335-.866.433-.394.157-.768.197-1.162.197"/><g fill="#F90" fill-rule="evenodd" clip-rule="evenodd"><path d="M21.59 12.153c-2.599 1.909-6.38 2.932-9.61 2.932-4.549 0-8.645-1.673-11.737-4.468-.236-.216-.02-.511.276-.354 3.348 1.948 7.464 3.11 11.737 3.11 2.875 0 6.046-.59 8.96-1.83.414-.178.788.295.375.61"/><path d="M22.654 10.932c-.334-.433-2.186-.196-3.033-.098-.256.04-.295-.197-.059-.354 1.477-1.043 3.92-.748 4.195-.394s-.079 2.795-1.457 3.956c-.217.177-.414.079-.315-.158.315-.787 1.004-2.538.67-2.952"/></g></g><defs><clipPath id="a"><path fill="#fff" d="M.144.915h23.711v14.17H.145z"/></clipPath></defs></svg>
